data/boundarygrey_MUI.svg

<?xml version="1.0" encoding="UTF-8" standalone="no"?>
<svg
   xmlns:dc="http://purl.org/dc/elements/1.1/"
   xmlns:cc="http://creativecommons.org/ns#"
   xmlns:rdf="http://www.w3.org/1999/02/22-rdf-syntax-ns#"
   xmlns:svg="http://www.w3.org/2000/svg"
   xmlns="http://www.w3.org/2000/svg"
   xmlns:sodipodi="http://sodipodi.sourceforge.net/DTD/sodipodi-0.dtd"
   xmlns:inkscape="http://www.inkscape.org/namespaces/inkscape"
   inkscape:version="1.0 (1.0+r73+1)"
   sodipodi:docname="boundarygrey_MUI1.svg"
   id="svg3380"
   viewBox="0 0 18 18"
   height="18pt"
   width="18pt"
   overflow="visible"
   version="1.1"
   fill-rule="evenodd"
   stroke-linejoin="bevel"
   stroke-width="0.501">
  <metadata
     id="metadata3384">
    <rdf:RDF>
      <cc:Work
         rdf:about="">
        <dc:format>image/svg+xml</dc:format>
        <dc:type
           rdf:resource="http://purl.org/dc/dcmitype/StillImage" />
        <dc:title></dc:title>
      </cc:Work>
    </rdf:RDF>
  </metadata>
  <sodipodi:namedview
     inkscape:current-layer="svg3380"
     inkscape:window-maximized="1"
     inkscape:window-y="0"
     inkscape:window-x="0"
     inkscape:cy="16.0571"
     inkscape:cx="24.60348"
     inkscape:zoom="18.883022"
     showgrid="false"
     id="namedview3382"
     inkscape:window-height="1056"
     inkscape:window-width="1920"
     inkscape:pageshadow="2"
     inkscape:pageopacity="0"
     guidetolerance="10"
     gridtolerance="10"
     objecttolerance="10"
     borderopacity="1"
     bordercolor="#666666"
     pagecolor="#ffffff" />
  <defs
     id="defs3351">
    <marker
       orient="auto"
       overflow="visible"
       markerHeight="1"
       markerWidth="1"
       viewBox="0 0 1 1"
       markerUnits="strokeWidth"
       id="DefaultArrow2">
      <!-- REF_ARROW_STRAIGHT (-2) -->
      <g
         id="g3276"
         transform="scale(0.0092592592)">
        <!-- 1/108 -->
        <path
           id="path3274"
           d="M -9 54 L -9 -54 L 117 0 z" />
      </g>
    </marker>
    <marker
       orient="auto"
       overflow="visible"
       markerHeight="1"
       markerWidth="1"
       viewBox="0 0 1 1"
       markerUnits="strokeWidth"
       id="DefaultArrow3">
      <!-- REF_ARROW_ANGLED -->
      <g
         id="g3281"
         transform="scale(0.0092592592)">
        <path
           id="path3279"
           d="M -27 54 L -9 0 L -27 -54 L 135 0 z" />
      </g>
    </marker>
    <marker
       orient="auto"
       overflow="visible"
       markerHeight="1"
       markerWidth="1"
       viewBox="0 0 1 1"
       markerUnits="strokeWidth"
       id="DefaultArrow4">
      <!-- REF_ARROW_ROUNDED -->
      <g
         id="g3286"
         transform="scale(0.0092592592)">
        <path
           id="path3284"
           d="M -9,0 L -9,-45 C -9,-51.708 2.808,-56.580 9,-54 L 117,-9 C 120.916,-7.369 126.000,-4.242 126,0 C 126,4.242 120.916,7.369 117,9 L 9,54 C 2.808,56.580 -9,51.708 -9,45 z" />
      </g>
    </marker>
    <marker
       orient="auto"
       overflow="visible"
       markerHeight="1"
       markerWidth="1"
       viewBox="0 0 1 1"
       markerUnits="strokeWidth"
       id="DefaultArrow5">
      <!-- REF_ARROW_SPOT -->
      <g
         id="g3291"
         transform="scale(0.0092592592)">
        <path
           id="path3289"
           d="M -54, 0 C -54,29.807 -29.807,54 0,54 C 29.807,54 54,29.807 54,0 C 54,-29.807 29.807,-54 0,-54 C -29.807,-54 -54,-29.807 -54,0 z" />
      </g>
    </marker>
    <marker
       orient="auto"
       overflow="visible"
       markerHeight="1"
       markerWidth="1"
       viewBox="0 0 1 1"
       markerUnits="strokeWidth"
       id="DefaultArrow6">
      <!-- REF_ARROW_DIAMOND -->
      <g
         id="g3296"
         transform="scale(0.0092592592)">
        <path
           id="path3294"
           d="M -63,0 L 0,63 L 63,0 L 0,-63 z" />
      </g>
    </marker>
    <marker
       orient="auto"
       overflow="visible"
       markerHeight="1"
       markerWidth="1"
       viewBox="0 0 1 1"
       markerUnits="strokeWidth"
       id="DefaultArrow7">
      <!-- REF_ARROW_FEATHER -->
      <g
         id="g3301"
         transform="scale(0.0092592592)">
        <path
           id="path3299"
           d="M 18,-54 L 108,-54 L 63,0 L 108,54 L 18, 54 L -36,0 z" />
      </g>
    </marker>
    <marker
       orient="auto"
       overflow="visible"
       markerHeight="1"
       markerWidth="1"
       viewBox="0 0 1 1"
       markerUnits="strokeWidth"
       id="DefaultArrow8">
      <!-- REF_ARROW_FEATHER2 -->
      <g
         id="g3306"
         transform="scale(0.0092592592)">
        <path
           id="path3304"
           d="M -36,0 L 18,-54 L 54,-54 L 18,-18 L 27,-18 L 63,-54 L 99,-54 L 63,-18 L 72,-18 L 108,-54 L 144,-54 L 90,0 L 144,54 L 108,54 L 72,18 L 63,18 L 99,54 L 63,54 L 27,18 L 18,18 L 54,54 L 18,54 z" />
      </g>
    </marker>
    <marker
       orient="auto"
       overflow="visible"
       markerHeight="1"
       markerWidth="1"
       viewBox="0 0 1 1"
       markerUnits="strokeWidth"
       id="DefaultArrow9">
      <!-- REF_ARROW_HOLLOWDIAMOND -->
      <g
         id="g3311"
         transform="scale(0.0092592592)">
        <path
           id="path3309"
           d="M 0,45 L -45,0 L 0, -45 L 45, 0 z M 0, 63 L-63, 0 L 0, -63 L 63, 0 z" />
      </g>
    </marker>
    <filter
       id="StainedFilter">
      <feBlend
         id="feBlend3314"
         result="blend"
         in="SourceGraphic"
         in2="BackgroundImage"
         mode="multiply" />
      <feComposite
         id="feComposite3316"
         result="comp"
         operator="in"
         in2="SourceAlpha"
         in="blend" />
    </filter>
    <filter
       id="BleachFilter">
      <feBlend
         id="feBlend3319"
         result="blend"
         in="SourceGraphic"
         in2="BackgroundImage"
         mode="screen" />
      <feComposite
         id="feComposite3321"
         result="comp"
         operator="in"
         in2="SourceAlpha"
         in="blend" />
    </filter>
    <filter
       id="InvertTransparencyBitmapFilter">
      <feComponentTransfer
         id="feComponentTransfer3330">
        <feFuncR
           id="feFuncR3324"
           offset="-0.055"
           exponent=".416666666"
           amplitude="1.055"
           type="gamma" />
        <feFuncG
           id="feFuncG3326"
           offset="-0.055"
           exponent=".416666666"
           amplitude="1.055"
           type="gamma" />
        <feFuncB
           id="feFuncB3328"
           offset="-0.055"
           exponent=".416666666"
           amplitude="1.055"
           type="gamma" />
      </feComponentTransfer>
      <feComponentTransfer
         id="feComponentTransfer3340">
        <feFuncR
           id="feFuncR3332"
           intercept="1"
           slope="-1"
           type="linear" />
        <feFuncG
           id="feFuncG3334"
           intercept="1"
           slope="-1"
           type="linear" />
        <feFuncB
           id="feFuncB3336"
           intercept="1"
           slope="-1"
           type="linear" />
        <feFuncA
           id="feFuncA3338"
           intercept="0"
           slope="1"
           type="linear" />
      </feComponentTransfer>
      <feComponentTransfer
         id="feComponentTransfer3348">
        <feFuncR
           id="feFuncR3342"
           offset="0"
           exponent="2.4"
           amplitude="1"
           type="gamma" />
        <feFuncG
           id="feFuncG3344"
           offset="0"
           exponent="2.4"
           amplitude="1"
           type="gamma" />
        <feFuncB
           id="feFuncB3346"
           offset="0"
           exponent="2.4"
           amplitude="1"
           type="gamma" />
      </feComponentTransfer>
    </filter>
    <pattern
       id="pattern4019"
       patternTransform="translate(0.00666667,-0.004)"
       height="43.446667"
       width="65.402667"
       patternUnits="userSpaceOnUse">
      <g
         id="Document"
         fill="none"
         stroke="#000000"
         font-family="'Times New Roman'"
         font-size="16px"
         transform="matrix(1.3333333,0,0,-1.3333333,-0.00666667,0.004)">
        <g
           id="Spread"
           transform="translate(0,-18)">
          <g
             id="Layer 1">
            <path
               d="m 25.057,9.418 h 24 v -24 h -24 v 24"
               stroke="none"
               id="path3353" />
            <path
               d="m 33.471,-1.769 c 0,2.241 1.88,4.06 4.196,4.06 2.316,0 4.196,-1.819 4.196,-4.06 0,-2.241 -1.88,-4.06 -4.196,-4.06 -2.316,0 -4.196,1.819 -4.196,4.06 z"
               stroke="none"
               stroke-opacity="0.85098"
               fill="#800000"
               stroke-width="0"
               fill-rule="evenodd"
               stroke-linejoin="round"
               marker-start="none"
               marker-end="none"
               stroke-miterlimit="79.8403"
               fill-opacity="0"
               id="path3355" />
            <path
               d="M 18.006,0.002 V 18.003 H 0.005 V 0.002 Z"
               stroke-width="0.75"
               stroke="none"
               fill="#898989"
               stroke-linejoin="miter"
               marker-start="none"
               marker-end="none"
               stroke-miterlimit="79.8403"
               id="path3357" />
            <g
               id="Group"
               stroke-linejoin="miter"
               stroke="#b4b4b4"
               stroke-width="0.75"
               stroke-miterlimit="79.8403">
              <g
                 id="Group_1">
                <path
                   d="M 7.473,3.358 7.469,6.357 10.468,6.36 10.472,3.361 Z"
                   marker-start="none"
                   marker-end="none"
                   id="path3359" />
                <path
                   d="M 8.952,4.483 C 9.159,4.475 9.336,4.634 9.345,4.841 9.354,5.048 9.195,5.225 8.988,5.233 8.781,5.242 8.604,5.083 8.595,4.876 8.586,4.669 8.745,4.492 8.952,4.483 Z"
                   marker-start="none"
                   marker-end="none"
                   id="path3361" />
              </g>
              <g
                 id="Group_2">
                <path
                   d="m 2.118,11.63 -0.004,2.999 2.999,0.004 0.004,-2.999 z"
                   marker-start="none"
                   marker-end="none"
                   id="path3364" />
                <path
                   d="M 3.598,12.756 C 3.805,12.747 3.981,12.906 3.99,13.113 3.999,13.32 3.84,13.497 3.633,13.506 3.426,13.515 3.249,13.356 3.24,13.149 3.231,12.942 3.391,12.765 3.598,12.756 Z"
                   marker-start="none"
                   marker-end="none"
                   id="path3366" />
              </g>
              <g
                 id="Group_3">
                <path
                   d="m 12.898,11.644 -0.004,2.999 2.999,0.004 0.004,-2.999 z"
                   marker-start="none"
                   marker-end="none"
                   id="path3369" />
                <path
                   d="m 14.378,12.77 c 0.207,-0.009 0.383,0.15 0.392,0.357 0.009,0.207 -0.15,0.384 -0.357,0.393 -0.207,0.009 -0.384,-0.151 -0.393,-0.358 -0.009,-0.207 0.151,-0.384 0.358,-0.392 z"
                   marker-start="none"
                   marker-end="none"
                   id="path3371" />
              </g>
              <path
                 d="M 5.147,12.943 5.149,11.591 6.675,8.937 8.162,6.353 9.807,6.354 11.3,8.93 l 1.557,2.69 -0.002,1.312 -3.861,0.005 z"
                 marker-start="none"
                 marker-end="none"
                 id="path3374" />
            </g>
          </g>
        </g>
      </g>
    </pattern>
    <clipPath
       id="clipPath5036"
       clipPathUnits="userSpaceOnUse">
      <rect
         y="-0.0040000002"
         x="0.0066666664"
         height="24.113596"
         width="24.037985"
         id="rect5038"
         style="fill:none;stroke:#000000;stroke-width:0;stroke-miterlimit:2;stroke-dasharray:none" />
    </clipPath>
  </defs>
  <rect
     clip-path="url(#clipPath5036)"
     id="rect4038"
     y="-0.0040000002"
     x="0.0066666668"
     height="43.446667"
     width="65.402664"
     transform="matrix(0.75,0,0,-0.75,0,18.079197)"
     style="fill:url(#pattern4019);stroke:none" />
  <rect
     y="-0.003"
     x="0.0049999999"
     height="18.085197"
     width="18.02849"
     id="rect4998"
     style="fill:none;stroke:#000000;stroke-width:0;stroke-miterlimit:2;stroke-dasharray:none" />
  <g
     style="display:inline"
     inkscape:label="Layer 1"
     id="layer1"
     inkscape:groupmode="layer" />
  <rect
     y="-0.003"
     x="0.0049999999"
     height="18.085197"
     width="18.028488"
     id="rect5016"
     style="fill:none;stroke:#000000;stroke-width:0;stroke-miterlimit:2;stroke-dasharray:none" />
</svg>

<?xml version="1.0" standalone="no"?>
<!DOCTYPE svg PUBLIC "-//W3C//DTD SVG 1.1//EN" "http://www.w3.org/Graphics/SVG/1.1/DTD/svg11.dtd">
<!--Generator: Xara Designer (www.xara.com), SVG filter version: 5.0.0.2-->
<svg stroke-width="0.501" stroke-linejoin="bevel" fill-rule="evenodd" xmlns:xlink="http://www.w3.org/1999/xlink" xmlns="http://www.w3.org/2000/svg" version="1.1" overflow="visible" width="18pt" height="18pt" viewBox="0 0 18 18">
 <defs>
  <marker id="DefaultArrow2" markerUnits="strokeWidth" viewBox="0 0 1 1" markerWidth="1" markerHeight="1" overflow="visible" orient="auto">
   <!-- REF_ARROW_STRAIGHT (-2) -->
   <g transform="scale(0.0092592592)">
    <!-- 1/108 -->
    <path d="M -9 54 L -9 -54 L 117 0 z"/>
   </g>
  </marker>
  <marker id="DefaultArrow3" markerUnits="strokeWidth" viewBox="0 0 1 1" markerWidth="1" markerHeight="1" overflow="visible" orient="auto">
   <!-- REF_ARROW_ANGLED -->
   <g transform="scale(0.0092592592)">
    <path d="M -27 54 L -9 0 L -27 -54 L 135 0 z"/>
   </g>
  </marker>
  <marker id="DefaultArrow4" markerUnits="strokeWidth" viewBox="0 0 1 1" markerWidth="1" markerHeight="1" overflow="visible" orient="auto">
   <!-- REF_ARROW_ROUNDED -->
   <g transform="scale(0.0092592592)">
    <path d="M -9,0 L -9,-45 C -9,-51.708 2.808,-56.580 9,-54 L 117,-9 C 120.916,-7.369 126.000,-4.242 126,0 C 126,4.242 120.916,7.369 117,9 L 9,54 C 2.808,56.580 -9,51.708 -9,45 z"/>
   </g>
  </marker>
  <marker id="DefaultArrow5" markerUnits="strokeWidth" viewBox="0 0 1 1" markerWidth="1" markerHeight="1" overflow="visible" orient="auto">
   <!-- REF_ARROW_SPOT -->
   <g transform="scale(0.0092592592)">
    <path d="M -54, 0 C -54,29.807 -29.807,54 0,54 C 29.807,54 54,29.807 54,0 C 54,-29.807 29.807,-54 0,-54 C -29.807,-54 -54,-29.807 -54,0 z"/>
   </g>
  </marker>
  <marker id="DefaultArrow6" markerUnits="strokeWidth" viewBox="0 0 1 1" markerWidth="1" markerHeight="1" overflow="visible" orient="auto">
   <!-- REF_ARROW_DIAMOND -->
   <g transform="scale(0.0092592592)">
    <path d="M -63,0 L 0,63 L 63,0 L 0,-63 z"/>
   </g>
  </marker>
  <marker id="DefaultArrow7" markerUnits="strokeWidth" viewBox="0 0 1 1" markerWidth="1" markerHeight="1" overflow="visible" orient="auto">
   <!-- REF_ARROW_FEATHER -->
   <g transform="scale(0.0092592592)">
    <path d="M 18,-54 L 108,-54 L 63,0 L 108,54 L 18, 54 L -36,0 z"/>
   </g>
  </marker>
  <marker id="DefaultArrow8" markerUnits="strokeWidth" viewBox="0 0 1 1" markerWidth="1" markerHeight="1" overflow="visible" orient="auto">
   <!-- REF_ARROW_FEATHER2 -->
   <g transform="scale(0.0092592592)">
    <path d="M -36,0 L 18,-54 L 54,-54 L 18,-18 L 27,-18 L 63,-54 L 99,-54 L 63,-18 L 72,-18 L 108,-54 L 144,-54 L 90,0 L 144,54 L 108,54 L 72,18 L 63,18 L 99,54 L 63,54 L 27,18 L 18,18 L 54,54 L 18,54 z"/>
   </g>
  </marker>
  <marker id="DefaultArrow9" markerUnits="strokeWidth" viewBox="0 0 1 1" markerWidth="1" markerHeight="1" overflow="visible" orient="auto">
   <!-- REF_ARROW_HOLLOWDIAMOND -->
   <g transform="scale(0.0092592592)">
    <path d="M 0,45 L -45,0 L 0, -45 L 45, 0 z M 0, 63 L-63, 0 L 0, -63 L 63, 0 z"/>
   </g>
  </marker>
  <filter id="StainedFilter">
   <feBlend mode="multiply" in2="BackgroundImage" in="SourceGraphic" result="blend"/>
   <feComposite in="blend" in2="SourceAlpha" operator="in" result="comp"/>
  </filter>
  <filter id="BleachFilter">
   <feBlend mode="screen" in2="BackgroundImage" in="SourceGraphic" result="blend"/>
   <feComposite in="blend" in2="SourceAlpha" operator="in" result="comp"/>
  </filter>
  <filter id="InvertTransparencyBitmapFilter">
   <feComponentTransfer>
    <feFuncR type="gamma" amplitude="1.055" exponent=".416666666" offset="-0.055"/>
    <feFuncG type="gamma" amplitude="1.055" exponent=".416666666" offset="-0.055"/>
    <feFuncB type="gamma" amplitude="1.055" exponent=".416666666" offset="-0.055"/>
   </feComponentTransfer>
   <feComponentTransfer>
    <feFuncR type="linear" slope="-1" intercept="1"/>
    <feFuncG type="linear" slope="-1" intercept="1"/>
    <feFuncB type="linear" slope="-1" intercept="1"/>
    <feFuncA type="linear" slope="1" intercept="0"/>
   </feComponentTransfer>
   <feComponentTransfer>
    <feFuncR type="gamma" amplitude="1" exponent="2.4" offset="0"/>
    <feFuncG type="gamma" amplitude="1" exponent="2.4" offset="0"/>
    <feFuncB type="gamma" amplitude="1" exponent="2.4" offset="0"/>
   </feComponentTransfer>
  </filter>
 </defs>
 <g id="Document" fill="none" stroke="black" font-family="Times New Roman" font-size="16" transform="scale(1 -1)">
  <g id="Spread" transform="translate(0 -18)">
   <g id="Layer 1">
    <path d="M 25.057,9.418 L 49.057,9.418 L 49.057,-14.582 L 25.057,-14.582 L 25.057,9.418" stroke="none"/>
    <path d="M 33.471,-1.769 C 33.471,0.472 35.351,2.291 37.667,2.291 C 39.983,2.291 41.863,0.472 41.863,-1.769 C 41.863,-4.01 39.983,-5.829 37.667,-5.829 C 35.351,-5.829 33.471,-4.01 33.471,-1.769 Z" stroke="none" stroke-opacity="0.850980" fill="#800000" stroke-width="0" fill-rule="evenodd" stroke-linejoin="round" marker-start="none" marker-end="none" stroke-miterlimit="79.8403193612775" fill-opacity="0.000000"/>
    <path d="M 18.006,0.002 L 18.006,18.003 L 0.005,18.003 L 0.005,0.002 L 18.006,0.002 Z" stroke-width="0.75" stroke="none" fill="#898989" stroke-linejoin="miter" marker-start="none" marker-end="none" stroke-miterlimit="79.8403193612775"/>
    <g id="Group" stroke-linejoin="miter" stroke="#b4b4b4" stroke-width="0.75" stroke-miterlimit="79.8403193612775">
     <g id="Group_1">
      <path d="M 7.473,3.358 L 7.469,6.357 L 10.468,6.36 L 10.472,3.361 L 7.473,3.358 Z" marker-start="none" marker-end="none"/>
      <path d="M 8.952,4.483 C 9.159,4.475 9.336,4.634 9.345,4.841 C 9.354,5.048 9.195,5.225 8.988,5.233 C 8.781,5.242 8.604,5.083 8.595,4.876 C 8.586,4.669 8.745,4.492 8.952,4.483 Z" marker-start="none" marker-end="none"/>
     </g>
     <g id="Group_2">
      <path d="M 2.118,11.63 L 2.114,14.629 L 5.113,14.633 L 5.117,11.634 L 2.118,11.63 Z" marker-start="none" marker-end="none"/>
      <path d="M 3.598,12.756 C 3.805,12.747 3.981,12.906 3.99,13.113 C 3.999,13.32 3.84,13.497 3.633,13.506 C 3.426,13.515 3.249,13.356 3.24,13.149 C 3.231,12.942 3.391,12.765 3.598,12.756 Z" marker-start="none" marker-end="none"/>
     </g>
     <g id="Group_3">
      <path d="M 12.898,11.644 L 12.894,14.643 L 15.893,14.647 L 15.897,11.648 L 12.898,11.644 Z" marker-start="none" marker-end="none"/>
      <path d="M 14.378,12.77 C 14.585,12.761 14.761,12.92 14.77,13.127 C 14.779,13.334 14.62,13.511 14.413,13.52 C 14.206,13.529 14.029,13.369 14.02,13.162 C 14.011,12.955 14.171,12.778 14.378,12.77 Z" marker-start="none" marker-end="none"/>
     </g>
     <path d="M 5.147,12.943 L 5.149,11.591 L 6.675,8.937 L 8.162,6.353 L 9.807,6.354 L 11.3,8.93 L 12.857,11.62 L 12.855,12.932 L 8.994,12.937 L 5.147,12.943 Z" marker-start="none" marker-end="none"/>
    </g>
   </g>
  </g>
 </g>
</svg>
